client/public/assets/icons/custom/custom3.svg

<?xml version="1.0"?><svg xmlns="http://www.w3.org/2000/svg" width="100" height="100" viewBox="0 0 100 100"><g fill="#fff"><path d="m50 38c-6.6 0-12 5.4-12 12s5.4 12 12 12 12-5.4 12-12-5.4-12-12-12z m30 12c0-3.5-8.4-5.3-9.7-8.4-1.3-3.2 3.3-10.4 0.9-12.8-2.4-2.4-9.6 2.2-12.8 0.9-3.1-1.3-4.9-9.7-8.4-9.7s-5.3 8.4-8.4 9.7c-3.2 1.3-10.4-3.3-12.8-0.9-2.4 2.4 2.2 9.6 0.9 12.8-1.3 3.1-9.7 4.9-9.7 8.4s8.4 5.3 9.7 8.4c1.3 3.2-3.3 10.4-0.9 12.8 2.4 2.4 9.6-2.2 12.8-0.9 3.1 1.3 4.9 9.7 8.4 9.7s5.3-8.4 8.4-9.7c3.2-1.3 10.4 3.3 12.8 0.9 2.4-2.4-2.2-9.6-0.9-12.8 1.3-3.1 9.7-4.9 9.7-8.4z m-30 18c-9.9 0-18-8.1-18-18s8.1-18 18-18 18 8.1 18 18-8.1 18-18 18z"></path></g></svg>

<?xml version="1.0" encoding="utf-8"?>
<!-- Generator: Adobe Illustrator 16.0.0, SVG Export Plug-In . SVG Version: 6.00 Build 0)  -->
<!DOCTYPE svg PUBLIC "-//W3C//DTD SVG 1.1//EN" "http://www.w3.org/Graphics/SVG/1.1/DTD/svg11.dtd">
<svg version="1.1" id="Layer_1" xmlns="http://www.w3.org/2000/svg" xmlns:xlink="http://www.w3.org/1999/xlink" x="0px" y="0px"
	 width="100px" height="100px" viewBox="0 0 100 100" enable-background="new 0 0 100 100" xml:space="preserve">
<g>
	<path fill="#FFFFFF" d="M50,38c-6.6,0-12,5.4-12,12c0,6.6,5.4,12,12,12c6.6,0,12-5.4,12-12C62,43.4,56.6,38,50,38z"/>
	<path fill="#FFFFFF" d="M80,50c0-3.5-8.4-5.3-9.7-8.4c-1.3-3.2,3.3-10.4,0.9-12.8c-2.4-2.4-9.601,2.2-12.8,0.9
		C55.3,28.4,53.5,20,50,20s-5.3,8.4-8.4,9.7c-3.2,1.3-10.4-3.3-12.8-0.9c-2.4,2.4,2.2,9.6,0.9,12.8C28.4,44.7,20,46.5,20,50
		s8.4,5.3,9.7,8.4C31,61.6,26.4,68.8,28.8,71.2c2.4,2.399,9.6-2.2,12.8-0.9c3.1,1.3,4.9,9.7,8.4,9.7s5.3-8.4,8.4-9.7
		C61.6,69,68.8,73.6,71.2,71.2C73.6,68.8,69,61.6,70.3,58.4C71.6,55.3,80,53.5,80,50z M50,68c-9.9,0-18-8.1-18-18
		c0-9.9,8.1-18,18-18c9.9,0,18,8.1,18,18C68,59.9,59.9,68,50,68z"/>
</g>
</svg>
